X:0134
M:2/4
L:1/8
Q:1/4=124
K:G
f|g2dc|B2AG|FGAB|cAAf|(g/f/e/f/) gd|B2AG|FGAc|BGG:|

